ion/timer.svg

<svg viewBox="0 0 512 512" xmlns="http://www.w3.org/2000/svg"><path d="M256 48C141.12 48 48 141.12 48 256c0 114.88 93.12 208 208 208s208-93.12 208-208 -93.12-208-208-208Zm-82.33 114.34l105 71v0c14.56 10.48 17.86 30.8 7.37 45.36 -10.29 14.28-30.07 17.77-44.63 7.89v0c-3.11-2.19-5.82-4.9-8-8l-71-105v0c-2.58-3.69-1.67-8.75 2.01-11.32 2.79-1.96 6.51-1.96 9.3 0ZM256 432c-97 0-176-78.95-176-176v0c-.17-47.84 19.3-93.65 53.87-126.72v0c5.53-5.52 14.49-5.51 20.01.03 5.51 5.53 5.5 14.49-.04 20.01 -.12.11-.23.22-.35.32v0c-29.01 27.75-45.35 66.2-45.21 106.35 0 81.44 66.26 147.7 147.7 147.7 81.44 0 147.7-66.26 147.7-147.7 0-76.67-58.72-139.88-133.55-147v55 0c0 7.81-6.34 14.15-14.15 14.15 -7.82 0-14.15-6.34-14.15-14.15 0-.01 0-.01 0-.01V94.13v0c0-7.82 6.33-14.15 14.15-14.15 97.05 0 176 79 176 176s-78.95 176-176 176Z"/></svg>

<svg xmlns="http://www.w3.org/2000/svg" width="512" height="512" viewBox="0 0 512 512"><path d="M256,48C141.12,48,48,141.12,48,256s93.12,208,208,208,208-93.12,208-208S370.88,48,256,48ZM173.67,162.34l105,71a32.5,32.5,0,0,1-37.25,53.26,33.21,33.21,0,0,1-8-8l-71-105a8.13,8.13,0,0,1,11.32-11.32ZM256,432C159,432,80,353.05,80,256a174.55,174.55,0,0,1,53.87-126.72,14.15,14.15,0,1,1,19.64,20.37A146.53,146.53,0,0,0,108.3,256c0,81.44,66.26,147.7,147.7,147.7S403.7,337.44,403.7,256c0-76.67-58.72-139.88-133.55-147V164a14.15,14.15,0,1,1-28.3,0V94.15A14.15,14.15,0,0,1,256,80C353.05,80,432,159,432,256S353.05,432,256,432Z"/></svg>
